packages/core/src/svgs/yfii.svg

<svg width="24" height="24" viewBox="0 0 24 24" fill="none" xmlns="http://www.w3.org/2000/svg">
<g clip-path="url(#clip0_31_21132)">
<path d="M0 0H24V24H0V0Z" fill="#FF267E"/>
<path d="M10.2664 6.97119L11.2328 10.6158L7.45024 11.4283L7.20552 10.3445L9.23352 9.89791C9.23352 9.89791 7.48666 8.70219 5.68752 10.2052C4.94609 10.8249 4.68381 11.8012 4.68381 12.2478C4.68381 12.8979 4.86381 14.6855 6.89824 15.3202C8.38024 15.5962 9.78209 14.9799 10.434 13.2858H11.6897C11.6897 13.2858 11.0781 15.2786 9.59952 16.0329C8.75695 16.4632 7.13009 16.9908 5.35324 15.9378C4.20466 15.1213 3.43066 14.1288 3.43066 12.2092C3.43066 10.7469 4.96924 7.98048 8.01295 8.35205C8.68795 8.43476 9.40409 8.73519 9.40409 8.73519L9.08609 7.2969L10.2664 6.97119ZM17.5714 12.8572H6.42852V12H17.5714V12.8572ZM12.7692 14.2385L13.7357 17.883L14.9155 17.5573L14.598 16.1186C14.598 16.1186 15.3137 16.419 15.9891 16.5018C19.0319 16.8738 20.5714 14.1073 20.5714 12.6446C20.5714 10.7255 19.7974 9.73291 18.6484 8.91648C16.8715 7.86348 15.2447 8.39105 14.4021 8.82091C12.9239 9.57519 12.3128 11.5715 12.3128 11.5715H13.5685C14.22 9.87733 15.6218 9.25762 17.1042 9.53405C19.1387 10.1688 19.3187 11.9563 19.3187 12.606C19.3187 13.053 19.0564 14.0289 18.3145 14.6486C16.5158 16.1516 14.7689 14.9563 14.7689 14.9563L16.797 14.5093L16.5518 13.4259L12.7692 14.2385Z" fill="white"/>
</g>
<defs>
<clipPath id="clip0_31_21132">
<rect width="24" height="24" fill="white"/>
</clipPath>
</defs>
</svg>

<svg xmlns="http://www.w3.org/2000/svg" width="24" height="24" fill="none" viewBox="0 0 24 24"><g clip-path="url(#a)"><path fill="#FF267E" d="M0 0h24v24H0z"/><path fill="#fff" d="m10.266 6.971.967 3.645-3.783.812-.244-1.084 2.028-.446s-1.747-1.196-3.546.307c-.742.62-1.004 1.596-1.004 2.043 0 .65.18 2.438 2.214 3.072 1.482.276 2.884-.34 3.536-2.034h1.256s-.612 1.993-2.09 2.747c-.843.43-2.47.958-4.247-.095-1.148-.817-1.922-1.81-1.922-3.729 0-1.462 1.538-4.229 4.582-3.857.675.083 1.391.383 1.391.383l-.318-1.438zm7.305 5.886H6.43V12H17.57zM12.77 14.24l.967 3.644 1.18-.326-.318-1.438s.716.3 1.391.383c3.043.372 4.582-2.395 4.582-3.857 0-1.92-.774-2.912-1.923-3.729-1.776-1.053-3.403-.525-4.246-.095-1.478.754-2.09 2.75-2.09 2.75h1.257c.651-1.694 2.053-2.313 3.535-2.037 2.035.635 2.215 2.422 2.215 3.072 0 .447-.263 1.423-1.005 2.043-1.798 1.503-3.545.307-3.545.307l2.028-.447-.245-1.083z"/></g><defs><clipPath id="a"><path fill="#fff" d="M0 0h24v24H0z"/></clipPath></defs></svg>
